!!!OTL: Tollite plausus
**kern
*staff1
=--
*clefC1
*k[b-]
0a
=-
1a
1b-
=-
1a
1g
=-
1a
2a
2b-
=-
2b-
2a
2b-
2b-
=-
2a
2g
2g
2f
=-
0g
=-
0a
=-
1a
1b-
=-
1a
1g
=-
1a
!!linebreak:original
=-
2a
2b-
=-
2b-
2a
2b-
2b-
=-
2a
1g
2f
=-
1g
2a
2a
=-
2cc
2a
2f
2g
=-
1a
1cc
=-
2a
2g
2a
2a
=-
1g
!!linebreak:original
=-
2b-
2g
=-
2g
2f
1g
=-
1dd
2b-
2dd
=-
2cc
2a
1b-
=-
2b-
2g
2a
1b-
2a
2b-
2b-
=-
2dd
2dd
2b-
2dd
=-
2cc
2a
=-
!!linebreak:original
1b-
=-
1g
2a
1b-
2a
1b-
=-
1dd
1b-
=-
1g
1cc
=-
1a
1dd
=-
1b-
1g
=-
1cc
1a
=-
1b-
2g
2g
=-
1a
1f
=-
1b-
2g
2g
=-
!!linebreak:original
1a
2f
1a
2b-
2g
2g
=-
1f
2g
2b-
2g
2g
1a
=-
2f
2b-
2g
2g
1a
2f
1a
2b-
=-
2g
2g
1f
=-
0g
=-=
*-
!!title: @{OTL}, @{GTL}, ed. @{ENC}
!!!pag:
!!!GTL: Hymnbook C
!!!EFL: 
!!!YEM: Creative Commons CC/BY/NC/SA 4.0
!!!ENC: Marcin Konik
!!!END: 2015-0m-dd
!!!EED: Marcin Konik
!!!EEV: 
!!!ONB: Encoded in vim by Marcin Konik
!!!CharacterEncoding: utf-8
!!!RDF**kern: l=long note in original notation
!!!RDF**kern: i=editorial accidental
!!muse2ps: z14jc180F
!!!COM: Anonim
!!!CDT: [?]
!!!TXO: Polish
!!!ODT: 
!!!GTL: Hymnbook C
!!!ARL: Opactwo św. Wojciecha, Staniątki 
!!!voices:	1
